src/static/logos/gocd.svg

<?xml version="1.0" encoding="UTF-8" standalone="no"?>
<svg width="512px" height="257px" viewBox="0 0 512 257" version="1.1" xmlns="http://www.w3.org/2000/svg" xmlns:xlink="http://www.w3.org/1999/xlink" preserveAspectRatio="xMidYMid">
    <g>
        <path d="M354.947693,213.464917 C351.629687,222.391935 346.889678,230.054949 340.727665,236.453962 C334.565653,242.852974 327.218639,247.829984 318.607622,251.305991 C309.996605,254.781998 300.516587,256.599001 290.167567,256.599001 C274.051535,256.599001 260.226508,252.569993 248.771486,244.590978 C237.316464,236.611962 229.811449,225.709941 226.256442,211.805914 L249.640488,211.805914 C251.931492,216.861924 254.775498,220.969932 258.330505,224.050938 C261.806511,227.131944 265.598519,229.422948 269.548526,231.002951 C273.498534,232.582954 277.290542,233.609956 281.003549,234.162958 C284.716556,234.715959 287.718562,234.952959 290.246567,234.952959 C298.857584,234.952959 306.125598,233.451956 312.20861,230.37095 C318.291622,227.289944 323.189631,223.339936 326.902638,218.520927 C330.694646,213.701918 333.380651,208.250907 335.039654,202.088895 C336.698658,195.926883 337.567659,189.843871 337.567659,183.681859 L337.567659,169.461831 C332.66965,176.097844 326.191637,181.785855 318.212622,186.446864 C310.233606,191.107873 301.306588,193.398878 291.510569,193.398878 C281.71455,193.398878 272.629532,191.581874 264.413516,187.868867 C256.1975,184.15586 249.008486,179.09985 243.004475,172.621837 C236.921463,166.143825 232.181453,158.55981 228.784447,150.027793 C225.38744,141.416776 223.649437,132.252758 223.649437,122.377739 C223.649437,112.50272 225.38744,103.338702 228.784447,94.648685 C232.181453,85.9586681 236.921463,78.4536534 243.004475,72.0546409 C249.087486,65.6556284 256.1975,60.5996185 264.413516,56.8076111 C272.629532,53.0156037 281.71455,51.1196 291.510569,51.1196 C301.543589,51.1196 310.628607,53.5686048 318.844623,58.4666144 C327.060639,63.3646239 333.538651,69.2896355 338.278661,76.0836488 L338.278661,54.5166066 L359.845703,54.5166066 L359.845703,183.681859 C359.924703,194.66288 358.2657,204.5379 354.947693,213.464917 L354.947693,213.464917 Z M333.933652,103.022701 C331.484647,96.8606893 328.166641,91.4886789 323.900633,86.8276697 C319.713624,82.1666606 314.815615,78.5326535 309.285604,75.9256485 C303.755593,73.3186434 297.830582,71.9756407 291.510569,71.9756407 C285.190557,71.9756407 279.265545,73.3186434 273.656534,75.9256485 C268.047524,78.5326535 263.228514,82.1666606 259.199506,86.8276697 C255.170498,91.4886789 251.931492,96.8606893 249.561487,103.022701 C247.191483,109.184713 246.00648,115.741726 246.00648,122.77274 C246.00648,129.645753 247.191483,136.123766 249.561487,142.206778 C251.931492,148.36879 255.091498,153.6618 259.199506,158.243809 C263.228514,162.825818 268.047524,166.380825 273.656534,169.06683 C279.265545,171.673835 285.269557,173.016838 291.510569,173.016838 C297.830582,173.016838 303.755593,171.673835 309.285604,169.06683 C314.815615,166.459825 319.713624,162.825818 323.900633,158.243809 C328.087641,153.6618 331.405647,148.36879 333.933652,142.206778 C336.382657,136.044766 337.646659,129.566753 337.646659,122.77274 C337.567659,115.741726 336.382657,109.105713 333.933652,103.022701 Z M470.84092,56.8076111 C479.135936,60.5996185 486.32495,65.7346286 492.407962,72.2126412 C498.490974,78.6906539 503.230983,86.2746687 506.70699,94.9646856 C510.182996,103.654703 512,112.897721 512,122.69374 C512,132.489759 510.261997,141.653777 506.70699,150.185793 C503.230983,158.71781 498.411973,166.143825 492.407962,172.542837 C486.32495,178.94185 479.135936,183.99786 470.84092,187.631867 C462.545903,191.265874 453.539886,193.161877 443.901867,193.161877 C434.263848,193.161877 425.336831,191.344874 417.041815,187.631867 C408.746798,183.918859 401.636784,178.94185 395.474772,172.542837 C389.31276,166.143825 384.493751,158.71781 381.017744,150.185793 C377.541737,141.653777 375.724734,132.489759 375.724734,122.69374 C375.724734,112.897721 377.462737,103.654703 381.017744,94.9646856 C384.493751,86.2746687 389.31276,78.6906539 395.474772,72.2126412 C401.636784,65.7346286 408.825798,60.5996185 417.041815,56.8076111 C425.257831,53.0156037 434.263848,51.1196 443.901867,51.1196 C453.539886,51.1986002 462.466903,53.0946039 470.84092,56.8076111 Z M461.597902,168.75083 C467.127912,166.143825 472.025922,162.588818 476.21293,158.085809 C480.399938,153.5828 483.717945,148.28979 486.087949,142.206778 C488.457954,136.044766 489.642956,129.566753 489.642956,122.77274 C489.642956,115.741726 488.457954,109.105713 486.087949,102.943701 C483.717945,96.702689 480.399938,91.3306785 476.21293,86.7486696 C472.025922,82.1666606 467.127912,78.5326535 461.597902,75.8466483 C456.067891,73.1606431 450.142879,71.7386403 443.822867,71.7386403 C437.502854,71.7386403 431.577843,73.0816429 426.047832,75.8466483 C420.517821,78.5326535 415.698812,82.1666606 411.590804,86.7486696 C407.482796,91.3306785 404.24379,96.702689 401.873785,102.943701 C399.50378,109.184713 398.318778,115.820726 398.318778,122.77274 C398.318778,129.645753 399.50378,136.123766 401.873785,142.206778 C404.24379,148.36879 407.482796,153.6618 411.590804,158.085809 C415.698812,162.588818 420.517821,166.143825 426.047832,168.75083 C431.577843,171.357835 437.502854,172.700837 443.822867,172.700837 C450.221879,172.700837 456.067891,171.357835 461.597902,168.75083 Z M22.4360438,223.892937 C18.8020367,223.892937 15.1680296,223.023936 11.8500231,221.206932 C4.58200895,217.335925 0,209.75191 0,201.456894 L0,111.949719 C0,99.5466946 10.0330196,89.5926751 22.3570437,89.5926751 C34.6810677,89.5926751 44.7140873,99.6256947 44.7140873,111.949719 L44.7140873,159.665812 L116.288227,111.949719 L10.0330196,41.0075803 C-0.237000463,34.1345668 -3.00200586,20.2305397 3.79200741,9.96051962 C10.6650208,-0.309500442 24.569048,-3.07450584 34.839068,3.71950743 L169.218331,93.3056824 C175.459343,97.4926906 179.17235,104.444704 179.17235,111.949719 C179.17235,119.454733 175.459343,126.406747 169.218331,130.593755 L34.9180682,220.17993 C31.1260608,222.628935 26.7810523,223.892937 22.4360438,223.892937 Z" fill="#000000"></path>
    </g>
</svg>

<svg width="512" height="257" xmlns="http://www.w3.org/2000/svg" preserveAspectRatio="xMidYMid"><path d="M354.948 213.465c-3.318 8.927-8.058 16.59-14.22 22.989-6.162 6.399-13.51 11.376-22.12 14.852-8.611 3.476-18.091 5.293-28.44 5.293-16.116 0-29.941-4.029-41.397-12.008-11.455-7.979-18.96-18.881-22.515-32.785h23.384c2.291 5.056 5.135 9.164 8.69 12.245 3.477 3.08 7.269 5.372 11.219 6.952 3.95 1.58 7.742 2.607 11.455 3.16 3.713.553 6.715.79 9.243.79 8.61 0 15.879-1.501 21.962-4.582s10.98-7.031 14.694-11.85c3.792-4.82 6.478-10.27 8.137-16.432 1.659-6.162 2.528-12.245 2.528-18.407v-14.22c-4.898 6.636-11.376 12.324-19.355 16.985-7.98 4.66-16.906 6.952-26.702 6.952-9.796 0-18.881-1.817-27.097-5.53-8.216-3.713-15.406-8.77-21.41-15.247-6.083-6.478-10.823-14.062-14.22-22.594-3.397-8.611-5.135-17.775-5.135-27.65s1.738-19.04 5.135-27.73c3.397-8.69 8.137-16.194 14.22-22.593 6.083-6.4 13.194-11.455 21.41-15.247s17.3-5.688 27.097-5.688c10.033 0 19.118 2.449 27.334 7.347 8.216 4.898 14.694 10.823 19.434 17.617V54.517h21.567v129.165c.079 10.98-1.58 20.856-4.898 29.783zm-21.014-110.442c-2.45-6.162-5.767-11.534-10.033-16.195-4.187-4.661-9.085-8.295-14.615-10.902-5.53-2.607-11.455-3.95-17.775-3.95-6.32 0-12.245 1.343-17.854 3.95-5.61 2.607-10.428 6.24-14.457 10.902-4.03 4.66-7.269 10.033-9.639 16.195-2.37 6.162-3.555 12.719-3.555 19.75 0 6.873 1.185 13.35 3.555 19.434 2.37 6.162 5.53 11.455 9.639 16.037 4.029 4.582 8.848 8.137 14.457 10.823a42.06 42.06 0 0017.854 3.95c6.32 0 12.245-1.343 17.775-3.95 5.53-2.607 10.428-6.241 14.615-10.823 4.187-4.582 7.505-9.875 10.033-16.037a52.169 52.169 0 003.713-19.434c-.08-7.031-1.264-13.667-3.713-19.75zM470.84 56.808c8.295 3.792 15.484 8.927 21.567 15.405s10.823 14.062 14.299 22.752c3.476 8.69 5.293 17.933 5.293 27.729s-1.738 18.96-5.293 27.492c-3.476 8.532-8.295 15.958-14.299 22.357-6.083 6.399-13.272 11.455-21.567 15.089-8.295 3.634-17.301 5.53-26.94 5.53-9.637 0-18.564-1.817-26.86-5.53-8.294-3.713-15.404-8.69-21.566-15.09-6.162-6.398-10.981-13.824-14.457-22.356-3.476-8.532-5.293-17.696-5.293-27.492s1.738-19.04 5.293-27.73c3.476-8.69 8.295-16.273 14.457-22.751 6.162-6.478 13.35-11.613 21.567-15.405 8.216-3.792 17.222-5.688 26.86-5.688 9.638.079 18.565 1.975 26.939 5.688zm-9.243 111.943c5.53-2.607 10.428-6.162 14.615-10.665 4.187-4.503 7.505-9.796 9.875-15.88 2.37-6.161 3.555-12.64 3.555-19.433 0-7.031-1.185-13.667-3.555-19.83-2.37-6.24-5.688-11.612-9.875-16.194a48.145 48.145 0 00-14.615-10.902c-5.53-2.686-11.455-4.108-17.775-4.108-6.32 0-12.245 1.343-17.775 4.108a46.557 46.557 0 00-14.457 10.902c-4.108 4.582-7.347 9.954-9.717 16.195-2.37 6.24-3.555 12.877-3.555 19.829 0 6.873 1.185 13.35 3.555 19.434 2.37 6.162 5.609 11.455 9.717 15.879a45.84 45.84 0 0014.457 10.665c5.53 2.607 11.455 3.95 17.775 3.95 6.399 0 12.245-1.343 17.775-3.95zM22.436 223.893c-3.634 0-7.268-.87-10.586-2.686A22.378 22.378 0 010 201.457V111.95c0-12.403 10.033-22.357 22.357-22.357s22.357 10.033 22.357 22.357v47.716l71.574-47.716L10.033 41.008C-.237 34.135-3.002 20.23 3.792 9.96 10.665-.31 24.569-3.075 34.839 3.72l134.38 89.586a22.39 22.39 0 019.953 18.644 22.39 22.39 0 01-9.954 18.644l-134.3 89.586c-3.792 2.449-8.137 3.713-12.482 3.713z"/></svg>
